X:1
T: Tie the Petticoat Tighter
C:
R:Jig
Q:180
K:Am
M:6/8
L:1/16
B2|c4A2 B2G2E2|c4A2 B2G2E2|G4G2 G4d2|G4G2 G4B2|
c4A2 B2G2E2|c4A2 B2G2E2|A4A2 A4e2|A4A2 A4B2:|
|:c2d2e2 d2c2B2|c2B2A2 B2G2E2|f2a2f2 f2d2B2|g2a2g2 g2d2B2|
|1c2d2e2 d2c2B2|c2B2A2 B2G2E2|a2b2a2 a2e2c2|a2b2a2 a2e2c2:|
|2c2d2e2 d2e2f2|e2d2c2 B2A2G2|A4A2 A4e2|A4A2 A4||
